X:142
T:Job's done, The
M:6/8
L:1/8
B:Thompson's Compleat Collection of 200 Favourite Country Dances, vol. 2 (London, 1765)
Z:Transcribed and edited by Flynn Titford-Mock, 2007
Z:abc's:AK/Fiddler's Companion
K:D
d2d cBc | d2 a afd | B2e cBc | dAG FED | d2 d cBc | d2a afd | B2e {d}cBc | d3 D3 :|
|: f/g/aa g/a/bb | e/f/gg f/g/aa | f2a afd | c2d ecA | f/g/aa g/a/bb | e/f/gg f/g/aa | fdf gec | d3 D3 :|

